X:1
T:Come (Let Us) Dance and Sing
L:1/8
M:2/2
I:linebreak $
K:D
V:1 treble 
V:1
 A2 |"D" d2 cd"A7" e2 de |"D" f2 d2 dedc |"G" B2 e2"E7" efed |"A7" c2 A2 A2 Bc || %5
"D" d2 cd"A7" e2 de |"D" f2 d2 dedc |"G" B2 e2"A7" dcBc |$"D" d6 :: AG |"D" F2 A2"A7" ABAG | %11
"D" F2 A2"A7" A3 G |"D" F2 A2"Bm" d2 f2 |"E" edcB"A7" A2 AG ||"D" F2 A2"A7" ABAG | %15
"D" F2 A2"A7" A2 Bc |$"D" d2 de"G" gfed |"A7" a2 A2 A2 :| %18
